src/assets/outline/CloudRemove.svg

<svg width="24" height="24" viewBox="0 0 24 24"  xmlns="http://www.w3.org/2000/svg">
<path d="M12.9698 18.3604C12.7798 18.3604 12.5898 18.2904 12.4398 18.1404L10.3298 16.0304C10.0398 15.7404 10.0398 15.2604 10.3298 14.9704C10.6198 14.6804 11.0998 14.6804 11.3898 14.9704L13.4998 17.0804C13.7898 17.3704 13.7898 17.8504 13.4998 18.1404C13.3598 18.2904 13.1598 18.3604 12.9698 18.3604Z" />
<path d="M10.83 18.3897C10.64 18.3897 10.45 18.3197 10.3 18.1697C10.01 17.8797 10.01 17.3997 10.3 17.1097L12.41 14.9997C12.7 14.7097 13.18 14.7097 13.47 14.9997C13.76 15.2897 13.76 15.7697 13.47 16.0597L11.36 18.1697C11.22 18.3097 11.03 18.3897 10.83 18.3897Z" />
<path d="M7.45979 19.3396H5.53979C2.59979 19.1296 1.27979 16.8696 1.27979 14.8496C1.27979 12.8296 2.59979 10.5696 5.48979 10.3696C5.88979 10.3296 6.25979 10.6496 6.28979 11.0696C6.31979 11.4896 6.00979 11.8396 5.58979 11.8696C3.64979 12.0096 2.77979 13.4696 2.77979 14.8596C2.77979 16.2496 3.64979 17.7096 5.58979 17.8496H7.45979C7.86979 17.8496 8.20979 18.1896 8.20979 18.5996C8.20979 19.0096 7.86979 19.3396 7.45979 19.3396Z" />
<path d="M16.6699 19.34C16.6499 19.34 16.6399 19.34 16.6199 19.34C16.2099 19.34 15.8299 19 15.8299 18.59C15.8299 18.16 16.1599 17.84 16.5699 17.84C17.8099 17.84 18.8999 17.41 19.7599 16.64C21.3199 15.28 21.4199 13.32 20.9999 11.94C20.5799 10.57 19.4099 9 17.3699 8.75C17.0399 8.71 16.7799 8.46001 16.7199 8.13001C16.3199 5.73001 15.0299 4.07 13.0699 3.47C11.0399 2.84 8.68992 3.46 7.21992 5C5.78992 6.49 5.45992 8.58001 6.28992 10.88C6.42992 11.27 6.22992 11.7 5.83992 11.84C5.44992 11.98 5.01992 11.78 4.87992 11.39C3.86992 8.57 4.32992 5.87 6.13992 3.97C7.98992 2.03 10.9599 1.26 13.5099 2.04C15.8499 2.76 17.4999 4.69 18.0999 7.37C20.1499 7.83 21.7799 9.38001 22.4299 11.52C23.1399 13.85 22.4999 16.25 20.7599 17.77C19.6399 18.77 18.1899 19.34 16.6699 19.34Z" />
<path d="M12 22.2803C9.99 22.2803 8.11 21.2103 7.08 19.4803C6.97 19.3103 6.86 19.1003 6.77 18.8903C6.43 18.1803 6.25 17.3803 6.25 16.5303C6.25 13.3603 8.83 10.7803 12 10.7803C15.17 10.7803 17.75 13.3603 17.75 16.5303C17.75 17.3803 17.57 18.1803 17.22 18.9203C17.14 19.1103 17.03 19.3103 16.91 19.5003C15.89 21.2103 14.01 22.2803 12 22.2803ZM12 12.2803C9.66 12.2803 7.75 14.1903 7.75 16.5303C7.75 17.1503 7.88 17.7403 8.13 18.2603C8.21 18.4303 8.28 18.5703 8.36 18.7003C9.12 19.9903 10.51 20.7803 11.99 20.7803C13.47 20.7803 14.86 19.9903 15.61 18.7203C15.7 18.5703 15.77 18.4403 15.84 18.2903C16.11 17.7403 16.24 17.1603 16.24 16.5303C16.25 14.1903 14.34 12.2803 12 12.2803Z" />
</svg>

<?xml version="1.0" encoding="UTF-8"?>
<svg width="24" height="24" viewBox="0 0 24 24" xmlns="http://www.w3.org/2000/svg">
 <path d="m12.97 18.36c-0.19 0-0.38-0.07-0.53-0.22l-2.11-2.11c-0.29-0.29-0.29-0.77 0-1.06s0.77-0.29 1.06 0l2.11 2.11c0.29 0.29 0.29 0.77 0 1.06-0.14 0.15-0.34 0.22-0.53 0.22z"/>
 <path d="m10.83 18.39c-0.19 0-0.38-0.07-0.53-0.22-0.29-0.29-0.29-0.77 0-1.06l2.11-2.11c0.29-0.29 0.77-0.29 1.06 0s0.29 0.77 0 1.06l-2.11 2.11c-0.14 0.14-0.33 0.22-0.53 0.22z"/>
 <path d="m7.4598 19.34h-1.92c-2.94-0.21-4.26-2.47-4.26-4.49s1.32-4.28 4.21-4.48c0.4-0.04 0.77 0.28 0.8 0.7s-0.28 0.77-0.7 0.8c-1.94 0.14-2.81 1.6-2.81 2.99s0.87 2.85 2.81 2.99h1.87c0.41 0 0.75 0.34 0.75 0.75s-0.34 0.74-0.75 0.74z"/>
 <path d="m16.67 19.34h-0.05c-0.41 0-0.79-0.34-0.79-0.75 0-0.43 0.33-0.75 0.74-0.75 1.24 0 2.33-0.43 3.19-1.2 1.56-1.36 1.66-3.32 1.24-4.7-0.42-1.37-1.59-2.94-3.63-3.19-0.33-0.04-0.59-0.28999-0.65-0.61999-0.4-2.4-1.69-4.06-3.65-4.66-2.03-0.63-4.38-0.01-5.85 1.53-1.43 1.49-1.76 3.58-0.93 5.88 0.14 0.39-0.06 0.82-0.45 0.96s-0.82-0.06-0.96-0.45c-1.01-2.82-0.55-5.52 1.26-7.42 1.85-1.94 4.82-2.71 7.37-1.93 2.34 0.72 3.99 2.65 4.59 5.33 2.05 0.46 3.68 2.01 4.33 4.15 0.71 2.33 0.07 4.73-1.67 6.25-1.12 1-2.57 1.57-4.09 1.57z"/>
 <path d="m12 22.28c-2.01 0-3.89-1.07-4.92-2.8-0.11-0.17-0.22-0.38-0.31-0.59-0.34-0.71-0.52-1.51-0.52-2.36 0-3.17 2.58-5.75 5.75-5.75s5.75 2.58 5.75 5.75c0 0.85-0.18 1.65-0.53 2.39-0.08 0.19-0.19 0.39-0.31 0.58-1.02 1.71-2.9 2.78-4.91 2.78zm0-10c-2.34 0-4.25 1.91-4.25 4.25 0 0.62 0.13 1.21 0.38 1.73 0.08 0.17 0.15 0.31 0.23 0.44 0.76 1.29 2.15 2.08 3.63 2.08s2.87-0.79 3.62-2.06c0.09-0.15 0.16-0.28 0.23-0.43 0.27-0.55 0.4-1.13 0.4-1.76 0.01-2.34-1.9-4.25-4.24-4.25z"/>
</svg>
